X: 1
T: My Ballingarry Lady
M: 3/4
L: 1/8
R: waltz
K: Dmaj
|:E/F/G |A2 d2 dA | B2 d2 (3dcB | (3ABc df ab | a3 f ga |
gf ef ge | fe df ed | B2 e2 ed | ce Be cB |
A2 d2 dA | B2 d2 (3dcB | (3ABc df ab | a3 f ga |
gf ef ge | fe dc B2 |A 2 f2 fe |d4:|
|:e/f/g | a2 af df | e3/2d/ ce dB | A3/2G/ (3FGA df | e3 d ef |
gf eg fe | fe df ed | B2 e2 ed | c3/2d/ ef (3gfe | a2 af df | e3/2d/ ce dB | A3/2G/ (3FGA dc | B4 AG | (3FGA df af | ed ce dc | A2 f2 fe |d4 :|
